X: 40713
T: Toss The Feathers
R: reel
M: 4/4
K: Edorian
~E3G B2BA|EB~B2 AGFD|~E3G B2Bc|~d2ec dBAF|
EBBA B2BA|EB~B2 AGFD|E3B BABc|dfec dBAd||
Beed e2de|fede fedf|~g3e ~f3g|afdf afdf|
gb(3bbb fa(3aaa|egfe dBAF|G2GF GABc|dcdB AG(3FED||

